X:537
T: City of Chicago
R: song
M: C
L: 1/8
K: Dmin
P:I
|"F"c4-"C"c2Ac|"dm"cd-d4z2|"F"c4-"C"c2AG|"dm"A4-A2z2|"F"c3f"C"e2dc|"dm"cd-d4dc|"F"A3A"C"G2FE|"dm"D8|
P:R
|"F"z4"C"z4|"dm"z2A2-AGFG|"F"GA-A2"C"z4|"am"z2e2-edce|"B"d4"C"c2dc|"dm"A4-A2AG|"B"F4"C"E4|"gm"D8|"dm"-D8|
P:V
|:"gm"z4"B"zd-d4|"C"e2-ed/c/ "dm"d4|"gm"z4zd-"B"d4|"C"c2-cA/G/ "dm"A4|1"dm"A4:|2"B"B4||

